X: 532
T: Dağlar Başı Olaydım
C: Abdurrahman Kızılay
O: Turkey
F: http://compmusic.upf.edu/node/140
N: gerdaniye--turku--kapali_curcuna--daglar_basi--kerkuk
N: makam= gerdaniye
N: form= turku
N: usul= kapali_curcuna = 10/8
M: 10/8
L: 1/16
K: C _2/4B ^3/4f  
Q: 1/4=440
%%MIDI tuningsystem comma53
g4 f2g4a4f6  | z4 e2f4g4e6  | z4 d2e4=f4d6  | \
w:  ARANAĞME  |   |   | 
d4 e2d2 c2d2 c2d6  | 
w:   | 
z4 c2d4e4c6  | z4 B2c4d4B6  | z4 A2B4c4B4A2  | \
w:   |   |   | 
A4 A2A4A4d2 e2f2  | 
w:   | 
g4 f2g4a4f6  | z4 e2f4g4e6  | z4 d2e4=f4d6  | \
w:  ARANAĞME  |   |   | 
d4 e2d2 c2d2 c2d6  | 
w:   | 
z4 c2d4e4c6  | z4 B2c4d4B6  | z4 A2B4c4B4A2  | \
w:   |   |   | 
A4 A2A4A4d2 e2f2  | 
w:   | 
g4 f2g4g4g4f2  | g2f2 e2f4g2 f2g4f2  | \
w:  *  Dağ lar  ba şı   |  o *  lay *  dım    | 
g4 e2e4d4e4d2  | e2d2 {e}c6d2 c2d4ef  | 
w:  Ça *  ğı ray dım   |  ça lay *  *  dım   *  *  SAZ  | 
g4 f2g4g4g4f2  | g2f2 e2f4g2 f2g4f2  | \
w:  *  Dağ lar  ba şı   |  o *  lay *  dım    | 
g4 e2e4d4e4d2  | e2d2 {e}c6d2 c2d4ef  | 
w:  Ça *  ğı ray dım   |  ça lay *  *  dım   *  *  SAZ  | 
g4 g2g2 f2g2 f2g4f2  | g2f2 e2f4g2 f2g4f2  | \
w:  *  O  yâr  *  bur *  dan   |  ge *  den *  de    | 
g4 e2e4d4e4d2  | 
w:  Kol  *  boy nu na   | 
e2d2 {e}c2c4d2 c2d6  | g4 g2g2 f2g2 f2g4f2  | \
w:  a *  *  *  tay dım    |  *  O  yâr  *  bur *  dan   | 
g2f2 e2f4g2 f2g4f2  | 
w:  ge *  den *  de    | 
g4 e2e4d4e4d2  | e2d2 {e}c2c4d2 c2d6  | \
w:  Kol  *  boy nu na   |  a *  *  *  tay dım    | 
z4 c2d4e4e4d2  | d4 {f}g2g2 e2e2 d2e2 d2c2  | 
w:  Dağ lar  dağ lar   |  yâr  *  ya man  *  dağ *  lar    | 
z4 c2d4e4e4d2  | d4 {f}g2g2 e2e2 d2e2 d2c2  | \
w:  Dağ lar  dağ lar   |  yâr  *  ya man  *  dağ *  lar    | 
z4 B2c2 B2c2 B2d4B2  | 
w:  Gö zel  *  yar_ *  iy  | 
B2A2 A6A4A2 c2d2  | e4 c2d4e4e4d2  | \
w:  çin_ *  ağ lar   SAZ  |  *  Dağ lar  dağ lar   | 
d4 {f}g2g2 e2e2 d2e2 d2c2  | 
w:  yâr  *  ya man  *  dağ *  lar    | 
e4 c2d4e4e4d2  | d4 {f}g2g2 e2e2 d2e2 d2c2  | \
w:  *  Dağ lar  dağ lar   |  yâr  *  ya man  *  dağ *  lar    | 
z4 B2c2 B2c2 B2d4B2  | 
w:  Bül bül  *  gül_ *  iy  | 
B2A2 A6A8-A2  | g4 f2g4a4f6  | z4 e2f4g4e6  | \
w:  çin_ *  ağ lar    |  ARANAĞME  |   | 
z4 d2e4=f4d6  | d4 e2d2 c2d2 c2d6  | 
w:   |   | 
z4 c2d4e4c6  | z4 B2c4d4B6  | z4 A2B4c4B4A2  | \
w:   |   |   | 
A4 A2A4A4d2 e2f2  | 
w:   | 
g4 f2g4a4f6  | z4 e2f4g4e6  | z4 d2e4=f4d6  | \
w:  ARANAĞME  |   |   | 
d4 e2d2 c2d2 c2d6  | 
w:   | 
z4 c2d4e4c6  | z4 B2c4d4B6  | z4 A2B4c4B4A2  | \
w:   |   |   | 
A4 A2A4A4d2 e2f2  | 
w:   | 
g4 f2g4g4g4f2  | g2f2 e2f4g2 f2g4f2  | \
w:  *  Dağ lar  ba şı   |  o *  lay *  dım    | 
g4 e2e4d4e4d2  | e2d2 {e}c6d2 c2d4ef  | 
w:  Ça *  ğı ray dım   |  ça lay *  *  dım   *  *  SAZ  | 
g4 f2g4g4g4f2  | g2f2 e2f4g2 f2g4f2  | \
w:  *  Dağ lar  ba şı   |  o *  lay *  dım    | 
g4 e2e4d4e4d2  | e2d2 {e}c6d2 c2d4ef  | 
w:  Ça *  ğı ray dım   |  ça lay *  *  dım   *  *  SAZ  | 
g4 g2g2 f2g2 f2g4f2  | g2f2 e2f4g2 f2g4f2  | \
w:  *  O  yâr  *  bur *  dan   |  ge *  den *  de    | 
g4 e2e4d4e4d2  | 
w:  Kol  *  boy nu na   | 
e2d2 {e}c2c4d2 c2d6  | g4 g2g2 f2g2 f2g4f2  | \
w:  a *  *  *  tay dım    |  *  O  yâr  *  bur *  dan   | 
g2f2 e2f4g2 f2g4f2  | 
w:  ge *  den *  de    | 
g4 e2e4d4e4d2  | e2d2 {e}c2c4d2 c2d6  | \
w:  Kol  *  boy nu na   |  a *  *  *  tay dım    | 
z4 c2d4e4e4d2  | d4 {f}g2g2 e2e2 d2e2 d2c2  | 
w:  Dağ lar  dağ lar   |  yâr  *  ya man  *  dağ *  lar    | 
z4 c2d4e4e4d2  | d4 {f}g2g2 e2e2 d2e2 d2c2  | \
w:  Dağ lar  dağ lar   |  yâr  *  ya man  *  dağ *  lar    | 
z4 B2c2 B2c2 B2d4B2  | 
w:  Gö zel  *  yar_ *  iy  | 
B2A2 A6A4A2 c2d2  | e4 c2d4e4e4d2  | \
w:  çin_ *  ağ lar   SAZ  |  *  Dağ lar  dağ lar   | 
d4 {f}g2g2 e2e2 d2e2 d2c2  | 
w:  yâr  *  ya man  *  dağ *  lar    | 
e4 c2d4e4e4d2  | d4 {f}g2g2 e2e2 d2e2 d2c2  | \
w:  *  Dağ lar  dağ lar   |  yâr  *  ya man  *  dağ *  lar    | 
z4 B2c2 B2c2 B2d4B2  | 
w:  Bül bül  *  gül_ *  iy  | 
B2A2 A6A8-A2  | |


